X:108
T: Maria hilf (2-10) S. 39
N: P0883
O: Lothringen
S: PINCK, Louis: Verklingende Weisen, Bd 2, Metz 1928]
R: geistliche, religise Lieder]
M: 4/4
L: 1/8
K: F
 | F3GA2Ac | G2GAF2
AB | c2dcB2cB | A2z4
FG | A2AcG2GA | F2z4
AB | c2dcB2cB | A2z6 |
c2c2d2c2 | BABdc2z2 |
A2AcG2z2 | FED2C2z2 |
FEFGAGAB | c2cBA2z2

@@@ Tune index: 7658
